32x32/apps/com.github.lainsce.beemy.svg

<svg width="32" height="32" version="1" xmlns="http://www.w3.org/2000/svg">
 <rect x="2" y="3" width="28" height="28" rx="1.4" ry="1.4" style="opacity:.2"/>
 <rect x="2" y="2" width="28" height="28" rx="1.4" ry="1.4" style="fill:#b3b3b3"/>
 <path d="M 3.4003906 2 C 2.6247906 2 2 2.6247906 2 3.4003906 L 2 4.4003906 C 2 3.6247906 2.6247906 3 3.4003906 3 L 28.599609 3 C 29.375209 3 30 3.6247906 30 4.4003906 L 30 3.4003906 C 30 2.6247906 29.375209 2 28.599609 2 L 3.4003906 2 z" style="fill:#f4f4f7;opacity:.2"/>
 <path d="m16 7c-8.4 0-11 3.7-11 3.7l4 7.3s2.1-1 7-1 7 1 7 1l4-7.3s-2.6-3.7-11-3.7z" style="opacity:.2"/>
 <path d="m16 6c-8.4 0-11 3.7-11 3.7l4 7.3s2.1-1 7-1 7 1 7 1l4-7.3s-2.6-3.7-11-3.7z" style="fill:#f4f4f7"/>
 <path d="m11 19.986328a1.0001 1.0001 0 0 0-0.927734 1.384766l2 5a1.0001 1.0001 0 0 0 0.927734 0.628906h6a1.0001 1.0001 0 0 0 0.927734-0.628906l2-5a1.0001 1.0001 0 1 0-1.855468-0.742188l-1.75 4.371094h-4.644532l-1.75-4.371094a1.0001 1.0001 0 0 0-0.927734-0.642578z" style="opacity:.1"/>
 <path d="m11 20 2 5h6l2-5" style="fill:none;stroke-linecap:round;stroke-linejoin:round;stroke-width:2;stroke:#666666"/>
 <path d="m10.9 17.25c-0.478813-2.869492-0.9-5.25-0.9-5.25s1.382542 2.065254 2.93 4.55c0.27582 0.442883-0.135025 1.235009-0.63 1.4s-1.314126-0.185365-1.4-0.7z" style="opacity:.1"/>
 <path d="m23.568359 7.3378906-3.8125 8.8964844c2.218185 0.295338 3.244141 0.765625 3.244141 0.765625l4-7.3007812s-0.929238-1.3015705-3.431641-2.3613282z" style="fill:#ff5555;opacity:.5"/>
 <path d="m10.9 16.25c-0.478813-2.869492-0.9-5.25-0.9-5.25s1.382542 2.065254 2.93 4.55c0.27582 0.442883-0.135025 1.235009-0.63 1.4s-1.314126-0.185365-1.4-0.7z" style="fill:#666666"/>
</svg>

<svg width="32" height="32" version="1" xmlns="http://www.w3.org/2000/svg"><rect x="2" y="3" width="28" height="28" rx="1.4" ry="1.4" style="opacity:.2"/><rect x="2" y="2" width="28" height="28" rx="1.4" ry="1.4" style="fill:#b3b3b3"/><path d="M3.4 2C2.625 2 2 2.625 2 3.4v1C2 3.625 2.625 3 3.4 3h25.2c.775 0 1.4.625 1.4 1.4v-1c0-.775-.625-1.4-1.4-1.4H3.4z" style="fill:#f4f4f7;opacity:.2"/><path d="M16 7C7.6 7 5 10.7 5 10.7L9 18s2.1-1 7-1 7 1 7 1l4-7.3S24.4 7 16 7z" style="opacity:.2"/><path d="M16 6C7.6 6 5 9.7 5 9.7L9 17s2.1-1 7-1 7 1 7 1l4-7.3S24.4 6 16 6z" style="fill:#f4f4f7"/><path d="M11 19.986a1 1 0 0 0-.928 1.385l2 5A1 1 0 0 0 13 27h6a1 1 0 0 0 .928-.629l2-5a1 1 0 1 0-1.856-.742L18.322 25h-4.644l-1.75-4.371a1 1 0 0 0-.928-.643z" style="opacity:.1"/><path d="m11 20 2 5h6l2-5" style="fill:none;stroke-linecap:round;stroke-linejoin:round;stroke-width:2;stroke:#666"/><path d="M10.9 17.25C10.421 14.38 10 12 10 12s1.383 2.065 2.93 4.55c.276.443-.135 1.235-.63 1.4s-1.314-.185-1.4-.7z" style="opacity:.1"/><path d="m23.568 7.338-3.812 8.896C21.974 16.53 23 17 23 17l4-7.3s-.93-1.302-3.432-2.362z" style="fill:#f55;opacity:.5"/><path d="M10.9 16.25C10.421 13.38 10 11 10 11s1.383 2.065 2.93 4.55c.276.443-.135 1.235-.63 1.4s-1.314-.185-1.4-.7z" style="fill:#666"/></svg>
